src/pos-icons/eyedropper-minus.svg

<svg height="24" viewBox="0 0 24 24" width="24" xmlns="http://www.w3.org/2000/svg"><path d="m19.35 11.72-2.13 2.13-1.41-1.42-7.71 7.71-4.6 1.86-1.5-1.5 1.86-4.6 7.71-7.71-1.42-1.41 2.13-2.13zm-2.59-8.72c1.17-1.17 3.07-1.17 4.24 0s1.17 3.07 0 4.24l-1.92 1.92-4.24-4.24zm-11.2 14.03-1.06 2.47 2.47-1.06 7.43-7.44-1.4-1.4zm3.44-13.03v2h-8v-2z"/></svg>

<?xml version="1.0" encoding="UTF-8"?><!DOCTYPE svg PUBLIC "-//W3C//DTD SVG 1.1//EN" "http://www.w3.org/Graphics/SVG/1.1/DTD/svg11.dtd"><svg xmlns="http://www.w3.org/2000/svg" xmlns:xlink="http://www.w3.org/1999/xlink" version="1.1" id="mdi-eyedropper-minus" width="24" height="24" viewBox="0 0 24 24"><path d="M19.35 11.72L17.22 13.85L15.81 12.43L8.1 20.14L3.5 22L2 20.5L3.86 15.9L11.57 8.19L10.15 6.78L12.28 4.65L19.35 11.72M16.76 3C17.93 1.83 19.83 1.83 21 3S22.17 6.07 21 7.24L19.08 9.16L14.84 4.92L16.76 3M5.56 17.03L4.5 19.5L6.97 18.44L14.4 11L13 9.6L5.56 17.03M9 4V6H1V4H9Z" /></svg>
